src/prism/main/themes/dark-theme/images/ic-chat-on-click.svg

<?xml version="1.0" encoding="UTF-8"?>
<svg width="22px" height="22px" viewBox="0 0 22 22" version="1.1" xmlns="http://www.w3.org/2000/svg" xmlns:xlink="http://www.w3.org/1999/xlink">
    <title>46AE03B4-9DE2-4F4A-889B-13B508B7929E</title>
    <g id="Page-1" stroke="none" stroke-width="1" fill="none" fill-rule="evenodd">
        <g id="GUIDE_PRISMSticker_202105" transform="translate(-363.000000, -3869.000000)" fill="#7A7F34">
            <g id="ic_chat_on_click" transform="translate(363.000000, 3869.000000)">
                <path d="M10.4916157,3.58824082e-13 C13.2930199,3.58824082e-13 15.9285238,1.09095163 17.9109268,3.0733546 C21.3076819,6.47325969 21.9618329,11.6497674 19.5510293,15.7710236 L20.9643314,20.05608 C21.0462315,20.3059804 20.9821814,20.5810808 20.7973811,20.7679811 C20.6104808,20.9548814 20.3353804,21.0220815 20.0865301,20.9412313 L15.7731236,19.5489293 C14.1697712,20.4844807 12.3459185,20.9779814 10.4790157,20.9779814 C7.68076149,20.9779814 5.05050756,19.8880798 3.0723046,17.9098768 C1.09200163,15.9274738 3.85469434e-12,13.2940699 3.85469434e-12,10.4905657 C3.85469434e-12,7.68916151 1.09200163,5.05365756 3.0723046,3.0733546 C5.05365756,1.09095163 7.68916151,3.58824082e-13 10.4916157,3.58824082e-13 Z M5.5,9 C4.67157288,9 4,9.67157288 4,10.5 C4,11.3284271 4.67157288,12 5.5,12 C6.32842712,12 7,11.3284271 7,10.5 C7,9.67157288 6.32842712,9 5.5,9 Z M10.5,9 C9.67157288,9 9,9.67157288 9,10.5 C9,11.3284271 9.67157288,12 10.5,12 C11.3284271,12 12,11.3284271 12,10.5 C12,9.67157288 11.3284271,9 10.5,9 Z M15.5,9 C14.6715729,9 14,9.67157288 14,10.5 C14,11.3284271 14.6715729,12 15.5,12 C16.3284271,12 17,11.3284271 17,10.5 C17,9.67157288 16.3284271,9 15.5,9 Z" id="Combined-Shape"></path>
            </g>
        </g>
    </g>
</svg>

<svg xmlns="http://www.w3.org/2000/svg" width="22" height="22" viewBox="0 0 22 22">
    <path fill="#7A7F34" fill-rule="evenodd" d="M10.479 20.978c-2.798 0-5.428-1.09-7.407-3.068C1.092 15.927 0 13.294 0 10.49c0-2.8 1.092-5.436 3.072-7.417C5.054 1.091 7.69 0 10.492 0c2.801 0 5.437 1.091 7.419 3.073 3.397 3.4 4.05 8.577 1.64 12.698l1.413 4.285c.082.25.018.525-.167.712-.187.187-.462.254-.71.173l-4.314-1.392c-1.603.935-3.427 1.429-5.294 1.429zM5.5 12c.828 0 1.5-.672 1.5-1.5S6.328 9 5.5 9 4 9.672 4 10.5 4.672 12 5.5 12zm5 0c.828 0 1.5-.672 1.5-1.5S11.328 9 10.5 9 9 9.672 9 10.5s.672 1.5 1.5 1.5zm5 0c.828 0 1.5-.672 1.5-1.5S16.328 9 15.5 9s-1.5.672-1.5 1.5.672 1.5 1.5 1.5z"/>
</svg>
